src/img/burger-menu.svg

<svg xmlns="http://www.w3.org/2000/svg" width="24" height="24" fill="none" viewBox="0 0 24 24"><path fill="#fff" d="M4 6h16v2H4zm4 5h12v2H8zm5 5h7v2h-7z"/></svg>

<svg width="24" height="24" viewBox="0 0 24 24" fill="none" xmlns="http://www.w3.org/2000/svg">
<path d="M4 6H20V8H4V6ZM8 11H20V13H8V11ZM13 16H20V18H13V16Z" fill="white"/>
</svg>
